X: 60
T: The Flower o' the Quern
C: J.S.Skinner
R: air
M: 4/4
L: 1/8
K: A
E2 \
| "A"A2 A2 G2 FE | "D"d2 d2 "A"c2 e2 | e2 cB "F#m"A2 Bc | "Bm"B4- "E7"B2 E2 \
| "A"A2 A2 G2 FE | "D"d2 d2 "A"c2 e2 | "Bm"ed FB "D"A2 "E"G2 | "A"A6 ||
A2 \
| "D"d2 d>d d2 f>f | "A"e2 e>c e2 a>f | e2 c>B "F#m"A2 Bc | "Bm"B4- "E7"B2 E2 \
| "A"A2 A2 G2 FE | "D"d2 d2 "A"c2 e>e | "Bm"ed FB "E7"AG c>B | "A"A6 |]

%%sep 1 1 500

